X: 1134
T: Charlie Mulvihill's
M: 4/4
L: 1/8
R: hornpipe
K: G Major
|: DF |
GDGA BAGF | EBcA F2 DF | G2 GB d2 dB |AGFG D2 DF | 
G2 GA BAGF | EBcA FDEF | G2 g2 dBGB | ADFA G2 :|
|: Bd | 
gBfB eBdc | BGBd g2 fg | acgc fce^c | d2 ^ce d2 ef |
gBfB eBdc | BGBd gdBd | cBce dBGB | ADFA G2 :|
